X: 2
T: Don't You Want To Go To Heaven, Uncle Joe?
S: Lee Owens and Viola Ruth "American Square Dances of the West and Southwest"
S: Lee Owens and Viola Ruth "Advanced Square Dances of the West and Southwest" p.127
N: This is a variant of the Scottish "Miss McLeod's Reel"
R: reel
Z: 2010 John Chambers <jc:trillian.mit.edu>
M: 2/4
L: 1/16
K: G
|: "G"GABc dBGA |    B2(BA) B2A2 | "G"GABc dBGB |"D7"A2(AB)  A2z2  |
   "G"GABc dBGA |    B2(BA) B2d2 | "C"e3d  efgd | "G"B2A2 "G"G2z2 :|
|: "G"G2g2 efgd | "G"B2(BA) B2A2 | "G"G2g2 efge |"D7"a3b     a4    |
   "G"G2g2 efge | "G"B2(BA) B2d2 | "C"e3d  efgd | "G"B2A2 "G"G4   :|

%%sep 2 1 500

